X: 1329
T: Charlie Foster's Lancer's Set Tune
B: australian traditional tunes wiki
M:2/4
L:1/8
R: Set Tune
Q: 1/4=100
K:G
V:1 
F/E/|"G"DG BG|"Am"AE EF/E/|"G"DG BG/B/|"Bm"dB Gd|"Em"ef dB|"D7"c/B/A/G/ AB|"G"DG "D7"AG/A/|"G"BG G2|!
"Em"egd2|"Bm"B/d/B/c/ d2|"Em"eg d2|"C"eg gd|"Em"eg/e/ dB|"D7"c/B/A/G/ AB|"G"DG "D7"AG/A/|"G"BG G2||
% abcbook-tune_id 6342d53a9bedd30a880c5621


% abcbook-boost 0
% abcbook-tablature 
% abcbook-transpose 
% abcbook-lastupdated 1665324359394
% abcbook-soundfonts 
% abcbook-repeats 1
% NFF Book 2009

